X: 1
T: the World Turned Upside Down   [3]
C: (trad.)
R: march
Z: 2022 John Chambers <jc:trillian.mit.edu>
S: www.8notes.com/scores/4211.asp ? (in a corner of the copy)
S: "Digital Traditions" ? (also in copy)
M: 2/4
L: 1/8
K: D
DFG |\
"D"AA A2 | zA/A/ GF | "A7"E4 | zE F<G | "G"G>G GA | B<B "A7"AG | "D"FD FG | AD/D/ EF |
"D"AA z2 | zA/A/ GF | "A7"E4 | z EEF | "G"G>G "A7"AG | "D"FD "A7"EE | "D"D4 | z |]
